sources/resources/icons/32/misc/success.svg

<svg width="32" height="32" viewBox="0 0 32 32" fill="none" xmlns="http://www.w3.org/2000/svg">
<path d="M22.7722 12.3477C23.0759 12.0394 23.0759 11.5395 22.7722 11.2312C22.4685 10.9229 21.976 10.9229 21.6723 11.2312L13.9259 19.094L10.3277 15.4418C10.024 15.1334 9.53155 15.1334 9.22781 15.4418C8.92406 15.7501 8.92406 16.2499 9.22781 16.5582L13.376 20.7688C13.6797 21.0771 14.1722 21.0771 14.4759 20.7688L22.7722 12.3477Z" fill="white"/>
<path fill-rule="evenodd" clip-rule="evenodd" d="M32 16C32 24.8366 24.8366 32 16 32C7.16344 32 0 24.8366 0 16C0 7.16344 7.16344 0 16 0C24.8366 0 32 7.16344 32 16ZM31 16C31 24.2843 24.2843 31 16 31C7.71573 31 1 24.2843 1 16C1 7.71573 7.71573 1 16 1C24.2843 1 31 7.71573 31 16Z" fill="white"/>
</svg>

<svg viewBox="0 0 32 32" xmlns="http://www.w3.org/2000/svg"><path d="m22.8 12.3c0.304-0.308 0.304-0.808 0-1.12s-0.796-0.308-1.1 0l-7.75 7.86-3.6-3.65c-0.304-0.308-0.796-0.308-1.1 0-0.304 0.308-0.304 0.808 0 1.12l4.15 4.21c0.304 0.308 0.796 0.308 1.1 0l8.3-8.42z" fill="#000"/><path d="m32 16c0 8.84-7.16 16-16 16-8.84 0-16-7.16-16-16 0-8.84 7.16-16 16-16 8.84 0 16 7.16 16 16zm-1 0c0 8.28-6.72 15-15 15-8.28 0-15-6.72-15-15 0-8.28 6.72-15 15-15 8.28 0 15 6.72 15 15z" clip-rule="evenodd" fill="#000" fill-rule="evenodd"/></svg>
